;FLAVOR:Marlin
;TIME:1016
;Filament used: 1.30198m
;Layer height: 0.2
;Generated with Cura_SteamEngine 3.0.4
M104 S210
M109 S210
M82 ; absolute extrusion mode
G21 ;metric values
G90 ;absolute positioning
M82 ;set extruder to absolute mode
M107 ;start with the fan off
G28 ;Home all axes (max endstops)
G1 Z15.0 F9000 ;move the platform down 15mm
G92 E0 ;zero the extruded length
G1 F200 E3 ;extrude 3mm of feed stock
G92 E0 ;zero the extruded length again
G1 F9000
;Put printing message on LCD screen
M117 Printing...
;LAYER_COUNT:100
;LAYER:0
M107
G0 F3600 X-8.286 Y14 Z0.3
;TYPE:SKIRT
G1 F1800 X-8.605 Y13.988 E0.01593
G1 X-9.675 Y13.905 E0.06947
G1 X-10.234 Y13.822 E0.09766
G1 X-10.776 Y13.66 E0.12589
G1 X-11.29 Y13.424 E0.1541
G1 X-11.787 Y13.102 E0.18365
G1 X-12.208 Y12.782 E0.21003
G1 X-12.632 Y12.408 E0.23824
G1 X-13 Y11.979 E0.26644
G1 X-13.377 Y11.361 E0.30255
G1 X-13.548 Y11.013 E0.3219
G1 X-13.761 Y10.489 E0.35012
G1 X-13.898 Y9.941 E0.3783
G1 X-13.958 Y9.257 E0.41255
G1 X-13.995 Y-8.64 E1.30544
G1 X-13.977 Y-9.03 E1.32492
G1 X-13.911 Y-9.718 E1.3594
G1 X-13.817 Y-10.275 E1.38758
G1 X-13.646 Y-10.814 E1.41579
G1 X-13.4 Y-11.323 E1.444
G1 X-13.15 Y-11.707 E1.46686
G1 X-12.818 Y-12.158 E1.4948
G1 X-12.452 Y-12.589 E1.52301
G1 X-12.028 Y-12.963 E1.55121
G1 X-11.361 Y-13.377 E1.59038
G1 X-11.013 Y-13.548 E1.60972
G1 X-10.489 Y-13.761 E1.63794
G1 X-9.941 Y-13.898 E1.66613
G1 X-9.257 Y-13.958 E1.70038
G1 X8.64 Y-13.995 E2.59327
G1 X9.035 Y-13.976 E2.613
G1 X9.725 Y-13.909 E2.64758
G1 X10.282 Y-13.815 E2.67577
G1 X10.821 Y-13.643 E2.70399
G1 X11.186 Y-13.476 E2.72402
G1 X11.426 Y-13.351 E2.73752
G1 X11.907 Y-13.055 E2.7657
G1 X12.343 Y-12.694 E2.79394
G1 X12.836 Y-12.124 E2.83153
G1 X13.205 Y-11.606 E2.86326
G1 X13.5 Y-11.123 E2.8915
G1 X13.723 Y-10.604 E2.91968
G1 X13.871 Y-10.059 E2.94786
G1 X13.947 Y-9.296 E2.98611
G1 X13.995 Y8.636 E3.88075
G1 X13.977 Y9.028 E3.90032
G1 X13.911 Y9.717 E3.93486
G1 X13.817 Y10.275 E3.96309
G1 X13.646 Y10.814 E3.9913
G1 X13.401 Y11.323 E4.01948
G1 X13.15 Y11.707 E4.04237
G1 X12.818 Y12.158 E4.07031
G1 X12.452 Y12.589 E4.09852
G1 X12.028 Y12.963 E4.12672
G1 X11.353 Y13.381 E4.16633
G1 X11.005 Y13.551 E4.18566
G1 X10.481 Y13.763 E4.21386
G1 X9.932 Y13.898 E4.24206
G1 X9.259 Y13.957 E4.27577
G1 X-8.286 Y14 E5.15109
G0 F3600 X-8.287 Y13.6
G1 F1800 X-8.574 Y13.589 E5.16542
G1 X-9.644 Y13.506 E5.21897
G1 X-10.175 Y13.425 E5.24576
G1 X-10.687 Y13.266 E5.27251
G1 X-11.17 Y13.033 E5.29927
G1 X-11.544 Y12.783 E5.32171
G1 X-11.965 Y12.463 E5.34809
G1 X-12.367 Y12.108 E5.37485
G1 X-12.711 Y11.696 E5.40163
G1 X-13.018 Y11.185 E5.43137
G1 X-13.189 Y10.837 E5.45071
G1 X-13.389 Y10.339 E5.47749
G1 X-13.513 Y9.817 E5.50425
G1 X-13.558 Y9.256 E5.53233
G1 X-13.595 Y-8.641 E6.42522
G1 X-13.579 Y-8.992 E6.44275
G1 X-13.513 Y-9.68 E6.47723
G1 X-13.422 Y-10.208 E6.50396
G1 X-13.253 Y-10.717 E6.53072
G1 X-13.011 Y-11.196 E6.55749
G1 X-12.828 Y-11.47 E6.57393
G1 X-12.496 Y-11.921 E6.60187
G1 X-12.147 Y-12.328 E6.62862
G1 X-11.741 Y-12.679 E6.65539
G1 X-11.185 Y-13.018 E6.68788
G1 X-10.837 Y-13.189 E6.70723
G1 X-10.339 Y-13.389 E6.734
G1 X-9.817 Y-13.513 E6.76077
G1 X-9.256 Y-13.558 E6.78885
G1 X8.641 Y-13.595 E7.68173
G1 X8.996 Y-13.578 E7.69947
G1 X9.686 Y-13.511 E7.73405
G1 X10.214 Y-13.42 E7.76078
G1 X10.723 Y-13.251 E7.78754
G1 X11.001 Y-13.121 E7.80285
G1 X11.241 Y-12.996 E7.81635
G1 X11.697 Y-12.713 E7.84313
G1 X12.106 Y-12.366 E7.86988
G1 X12.51 Y-11.892 E7.90096
G1 X12.879 Y-11.374 E7.93269
G1 X13.157 Y-10.915 E7.95946
G1 X13.363 Y-10.42 E7.98621
G1 X13.494 Y-9.9 E8.01296
G1 X13.547 Y-9.295 E8.04326
G1 X13.595 Y8.637 E8.93789
G1 X13.579 Y8.99 E8.95552
G1 X13.513 Y9.679 E8.99006
G1 X13.422 Y10.208 E9.01684
G1 X13.254 Y10.717 E9.04358
G1 X13.012 Y11.196 E9.07035
G1 X12.828 Y11.47 E9.08682
G1 X12.496 Y11.921 E9.11476
G1 X12.147 Y12.328 E9.14151
G1 X11.741 Y12.679 E9.16828
G1 X11.177 Y13.022 E9.20121
G1 X10.829 Y13.192 E9.22054
G1 X10.331 Y13.391 E9.24729
G1 X9.809 Y13.513 E9.27404
G1 X9.258 Y13.557 E9.30161
G1 X-8.287 Y13.6 E10.17694
G0 F3600 X-8.288 Y13.2
G1 F1800 X-8.543 Y13.19 E10.18967
G1 X-9.613 Y13.107 E10.24321
G1 X-10.113 Y13.029 E10.26846
G1 X-10.594 Y12.872 E10.2937
G1 X-11.044 Y12.642 E10.31892
G1 X-11.302 Y12.465 E10.33453
G1 X-11.723 Y12.145 E10.36091
G1 X-12.1 Y11.808 E10.38614
G1 X-12.42 Y11.416 E10.41138
G1 X-12.659 Y11.008 E10.43497
G1 X-12.83 Y10.66 E10.45432
G1 X-13.016 Y10.19 E10.47954
G1 X-13.127 Y9.697 E10.50475
G1 X-13.158 Y9.256 E10.5268
G1 X-13.195 Y-8.641 E11.41969
G1 X-13.18 Y-8.954 E11.43532
G1 X-13.114 Y-9.642 E11.46981
G1 X-13.026 Y-10.139 E11.49499
G1 X-12.861 Y-10.617 E11.52022
G1 X-12.506 Y-11.233 E11.55569
G1 X-12.174 Y-11.684 E11.58363
G1 X-11.843 Y-12.066 E11.60884
G1 X-11.456 Y-12.392 E11.63409
G1 X-11.008 Y-12.659 E11.66011
G1 X-10.66 Y-12.83 E11.67945
G1 X-10.19 Y-13.016 E11.70467
G1 X-9.697 Y-13.127 E11.72988
G1 X-9.256 Y-13.158 E11.75194
G1 X8.641 Y-13.195 E12.64482
G1 X8.957 Y-13.18 E12.66061
G1 X9.647 Y-13.113 E12.69519
G1 X10.145 Y-13.025 E12.72042
G1 X10.816 Y-12.766 E12.75631
G1 X11.056 Y-12.641 E12.76981
G1 X11.485 Y-12.373 E12.79504
G1 X11.866 Y-12.041 E12.82026
G1 X12.184 Y-11.66 E12.84501
G1 X12.553 Y-11.142 E12.87674
G1 X12.813 Y-10.708 E12.90198
G1 X13.002 Y-10.239 E12.92721
G1 X13.114 Y-9.746 E12.95243
G1 X13.147 Y-9.294 E12.97504
G1 X13.195 Y8.638 E13.86968
G1 X13.18 Y8.952 E13.88536
G1 X13.114 Y9.641 E13.91989
G1 X13.027 Y10.139 E13.94512
G1 X12.861 Y10.617 E13.97036
G1 X12.506 Y11.233 E14.00583
G1 X12.174 Y11.684 E14.03377
G1 X11.843 Y12.066 E14.05899
G1 X11.456 Y12.392 E14.08423
G1 X11.002 Y12.662 E14.11059
G1 X10.654 Y12.832 E14.12991
G1 X10.183 Y13.018 E14.15517
G1 X9.69 Y13.127 E14.18036
G1 X9.257 Y13.157 E14.20202
G1 X-8.288 Y13.2 E15.07734
G1 F1500 E8.57734
G0 F3600 X-8.288 Y10.665
G0 X-8.288 Y9.38
G0 X-8.969 Y9.301
G0 X-8.975 Y9.4
;TYPE:WALL-INNER
G1 F1500 E15.07734
G1 F1800 X-9.116 Y9.381 E15.08444
G1 X-9.213 Y9.336 E15.08978
G1 X-9.3 Y9.261 E15.09551
G1 X-9.361 Y9.17 E15.10097
G1 X-9.395 Y9.055 E15.10695
G1 X-9.4 Y8.975 E15.11095
G1 X-9.4 Y-8.975 E16.00648
G1 X-9.394 Y-9.057 E16.01058
G1 X-9.361 Y-9.168 E16.01636
G1 X-9.298 Y-9.264 E16.02209
G1 X-9.205 Y-9.342 E16.02815
G1 X-9.107 Y-9.384 E16.03347
G1 X-9.055 Y-9.395 E16.03612
G1 X-8.975 Y-9.4 E16.04012
G1 X8.975 Y-9.4 E16.93565
G1 X9.057 Y-9.394 E16.93975
G1 X9.168 Y-9.361 E16.94552
G1 X9.264 Y-9.298 E16.95125
G1 X9.342 Y-9.205 E16.95731
G1 X9.384 Y-9.107 E16.96263
G1 X9.395 Y-9.055 E16.96528
G1 X9.4 Y-8.975 E16.96928
G1 X9.4 Y8.975 E17.86481
G1 X9.381 Y9.116 E17.87191
G1 X9.336 Y9.213 E17.87724
G1 X9.261 Y9.3 E17.88297
G1 X9.17 Y9.361 E17.88844
G1 X9.055 Y9.395 E17.89442
G1 X8.975 Y9.4 E17.89842
G1 X-8.975 Y9.4 E18.79395
G0 F3600 X-8.969 Y9.301
G0 X9.039 Y-9.296
G0 X9.118 Y-9.791
;TYPE:WALL-OUTER
G1 F1800 X9.231 Y-9.765 E18.79973
G1 X9.333 Y-9.727 E18.80516
G1 X9.437 Y-9.669 E18.8111
G1 X9.526 Y-9.602 E18.81666
G1 X9.606 Y-9.521 E18.82234
G1 X9.677 Y-9.425 E18.8283
G1 X9.727 Y-9.332 E18.83357
G1 X9.768 Y-9.221 E18.83947
G1 X9.792 Y-9.107 E18.84528
G1 X9.8 Y-8.987 E18.85128
G1 X9.8 Y8.989 E19.74811
G1 X9.791 Y9.118 E19.75456
G1 X9.765 Y9.231 E19.76035
G1 X9.727 Y9.333 E19.76578
G1 X9.669 Y9.437 E19.77172
G1 X9.602 Y9.526 E19.77728
G1 X9.521 Y9.606 E19.78295
G1 X9.425 Y9.677 E19.78891
G1 X9.332 Y9.727 E19.79418
G1 X9.221 Y9.768 E19.80008
G1 X9.107 Y9.792 E19.8059
G1 X8.987 Y9.8 E19.8119
G1 X-8.989 Y9.8 E20.70872
G1 X-9.118 Y9.791 E20.71517
G1 X-9.231 Y9.765 E20.72096
G1 X-9.333 Y9.727 E20.72639
G1 X-9.437 Y9.669 E20.73233
G1 X-9.526 Y9.602 E20.73789
G1 X-9.606 Y9.521 E20.74357
G1 X-9.677 Y9.425 E20.74952
G1 X-9.727 Y9.332 E20.75479
G1 X-9.768 Y9.221 E20.7607
G1 X-9.792 Y9.107 E20.76651
G1 X-9.8 Y8.987 E20.77251
G1 X-9.8 Y-8.989 E21.66933
G1 X-9.791 Y-9.118 E21.67579
G1 X-9.765 Y-9.231 E21.68157
G1 X-9.727 Y-9.333 E21.687
G1 X-9.669 Y-9.437 E21.69294
G1 X-9.602 Y-9.526 E21.6985
G1 X-9.521 Y-9.606 E21.70418
G1 X-9.425 Y-9.677 E21.71014
G1 X-9.332 Y-9.727 E21.7154
G1 X-9.221 Y-9.768 E21.72131
G1 X-9.107 Y-9.792 E21.72712
G1 X-8.987 Y-9.8 E21.73312
G1 X8.989 Y-9.8 E22.62995
G1 X9.118 Y-9.791 E22.6364
G0 F3600 X9.231 Y-9.765
G0 X9.311 Y-9.736
G0 X9.126 Y-9.271
G0 X8.986 Y-8.998
;TYPE:WALL-INNER
G1 F1800 X8.998 Y-8.992 E22.63707
G1 X9 Y8.949 E23.53215
G1 X8.989 Y8.997 E23.5346
G1 X-8.951 Y9 E24.42963
G1 X-8.997 Y8.989 E24.43199
G1 X-8.996 Y-8.995 E25.32922
G1 X-8.951 Y-9 E25.33148
G1 X8.986 Y-8.998 E26.22636
G0 F3600 X8.768 Y-8.767
G1 F1800 X8.485 Y-8.484 E26.25336
;TYPE:SKIN
G1 X8.082 Y-8.887
G0 F3600 X7.587 Y-8.817
G1 F1800 X8.818 Y-7.586 E26.34022
G1 X8.888 Y-7.516
G0 F3600 X8.818 Y-7.02
G1 F1800 X7.021 Y-8.817 E26.46701
G1 X6.951 Y-8.887
G0 F3600 X6.455 Y-8.817
G1 F1800 X8.818 Y-6.455 E26.63369
G1 X8.888 Y-6.385
G0 F3600 X8.818 Y-5.889
G1 F1800 X5.89 Y-8.817 E26.84028
G1 X5.82 Y-8.887
G0 F3600 X5.324 Y-8.817
G1 F1800 X8.818 Y-5.323 E27.0868
G1 X8.888 Y-5.253
G0 F3600 X8.818 Y-4.758
G1 F1800 X4.758 Y-8.817 E27.37322
G1 X4.688 Y-8.887
G0 F3600 X4.193 Y-8.817
G1 F1800 X8.818 Y-4.192 E27.69954
G1 X8.888 Y-4.122
G0 F3600 X8.818 Y-3.626
G1 F1800 X3.627 Y-8.817 E28.06579
G1 X3.557 Y-8.887
G0 F3600 X3.061 Y-8.817
G1 F1800 X8.818 Y-3.061 E28.47194
G1 X8.888 Y-2.991
G0 F3600 X8.819 Y-2.494
G1 F1800 X2.496 Y-8.817 E28.91807
G1 X2.426 Y-8.887
G0 F3600 X1.93 Y-8.817
G1 F1800 X8.819 Y-1.928 E29.40412
G1 X8.889 Y-1.858
G0 F3600 X8.819 Y-1.363
G1 F1800 X1.364 Y-8.817 E29.93008
G1 X1.294 Y-8.887
G0 F3600 X0.799 Y-8.817
G1 F1800 X8.819 Y-.797 E30.49593
G1 X8.889 Y-.727
G0 F3600 X8.819 Y-.231
G1 F1800 X0.233 Y-8.817 E31.10172
G1 X0.163 Y-8.887
G0 F3600 X-.333 Y-8.818
G1 F1800 X8.819 Y0.333 E31.74741
G1 X8.889 Y0.403
G0 F3600 X8.819 Y0.899
G1 F1800 X-.898 Y-8.818 E32.43299
G1 X-.968 Y-8.888
G0 F3600 X-1.464 Y-8.818
G1 F1800 X8.819 Y1.465 E33.15852
G1 X8.889 Y1.535
G0 F3600 X8.819 Y2.03
G1 F1800 X-2.03 Y-8.818 E33.92394
G1 X-2.1 Y-8.888
G0 F3600 X-2.595 Y-8.818
G1 F1800 X8.819 Y2.596 E34.72926
G1 X8.889 Y2.666
G0 F3600 X8.819 Y3.162
G1 F1800 X-3.161 Y-8.818 E35.57451
G1 X-3.231 Y-8.888
G0 F3600 X-3.727 Y-8.818
G1 F1800 X8.819 Y3.728 E36.4597
G1 X8.889 Y3.798
G0 F3600 X8.819 Y4.294
G1 F1800 X-4.292 Y-8.818 E37.38478
G1 X-4.362 Y-8.888
G0 F3600 X-4.858 Y-8.818
G1 F1800 X8.819 Y4.859 E38.34977
G1 X8.889 Y4.929
G0 F3600 X8.819 Y5.425
G1 F1800 X-5.424 Y-8.818 E39.35469
G1 X-5.494 Y-8.888
G0 F3600 X-5.989 Y-8.818
G1 F1800 X8.819 Y5.991 E40.39951
G1 X8.889 Y6.061
G0 F3600 X8.819 Y6.557
G1 F1800 X-6.555 Y-8.818 E41.48426
G1 X-6.625 Y-8.888
G0 F3600 X-7.121 Y-8.818
G1 F1800 X8.819 Y7.122 E42.60892
G1 X8.889 Y7.192
G0 F3600 X8.819 Y7.688
G1 F1800 X-7.686 Y-8.818 E43.77347
G1 X-7.756 Y-8.888
G0 F3600 X-8.252 Y-8.818
G1 F1800 X8.819 Y8.254 E44.97796
G1 X8.889 Y8.324
G0 F3600 X8.816 Y8.816
G1 F1800 X-8.816 Y-8.816 E46.22199
G1 X-8.886 Y-8.886
G0 F3600 X-8.816 Y-8.251
G1 F1800 X8.251 Y8.816 E47.42616
G1 X8.321 Y8.886
G0 F3600 X7.685 Y8.816
G1 F1800 X-8.816 Y-7.685 E48.59039
G1 X-8.886 Y-7.755
G0 F3600 X-8.816 Y-7.119
G1 F1800 X7.119 Y8.816 E49.71469
G1 X7.189 Y8.886
G0 F3600 X6.554 Y8.816
G1 F1800 X-8.816 Y-6.554 E50.79913
G1 X-8.886 Y-6.624
G0 F3600 X-8.816 Y-5.988
G1 F1800 X5.988 Y8.816 E51.84363
G1 X6.058 Y8.886
G0 F3600 X5.422 Y8.816
G1 F1800 X-8.816 Y-5.422 E52.8482
G1 X-8.886 Y-5.492
G0 F3600 X-8.816 Y-4.857
G1 F1800 X4.857 Y8.816 E53.8129
G1 X4.927 Y8.886
G0 F3600 X4.292 Y8.817
G1 F1800 X-8.816 Y-4.291 E54.73774
G1 X-8.886 Y-4.361
G0 F3600 X-8.816 Y-3.725
G1 F1800 X3.726 Y8.817 E55.62265
G1 X3.796 Y8.887
G0 F3600 X3.16 Y8.817
G1 F1800 X-8.816 Y-3.16 E56.46766
G1 X-8.886 Y-3.23
G0 F3600 X-8.816 Y-2.594
G1 F1800 X2.595 Y8.817 E57.27276
G1 X2.665 Y8.887
G0 F3600 X2.029 Y8.817
G1 F1800 X-8.816 Y-2.028 E58.03794
G1 X-8.886 Y-2.098
G0 F3600 X-8.816 Y-1.463
G1 F1800 X1.463 Y8.817 E58.76321
G1 X1.533 Y8.887
G0 F3600 X0.898 Y8.817
G1 F1800 X-8.816 Y-.897 E59.44859
G1 X-8.886 Y-.967
G0 F3600 X-8.816 Y-.331
G1 F1800 X0.332 Y8.817 E60.09403
G1 X0.402 Y8.887
G0 F3600 X-.232 Y8.818
G1 F1800 X-8.816 Y0.234 E60.69968
G1 X-8.886 Y0.164
G0 F3600 X-8.816 Y0.799
G1 F1800 X-.798 Y8.818 E61.26542
G1 X-.728 Y8.888
G0 F3600 X-1.364 Y8.818
G1 F1800 X-8.816 Y1.365 E61.79124
G1 X-8.886 Y1.295
G0 F3600 X-8.816 Y1.931
G1 F1800 X-1.929 Y8.818 E62.27715
G1 X-1.859 Y8.888
G0 F3600 X-2.495 Y8.818
G1 F1800 X-8.816 Y2.496 E62.72317
G1 X-8.886 Y2.426
G0 F3600 X-8.816 Y3.062
G1 F1800 X-3.061 Y8.818 E63.12925
G1 X-2.991 Y8.888
G0 F3600 X-3.626 Y8.818
G1 F1800 X-8.816 Y3.628 E63.49543
G1 X-8.886 Y3.558
G0 F3600 X-8.816 Y4.193
G1 F1800 X-4.192 Y8.818 E63.82172
G1 X-4.122 Y8.888
G0 F3600 X-4.757 Y8.819
G1 F1800 X-8.816 Y4.759 E64.10814
G1 X-8.886 Y4.689
G0 F3600 X-8.816 Y5.325
G1 F1800 X-5.323 Y8.819 E64.35462
G1 X-5.253 Y8.889
G0 F3600 X-5.888 Y8.819
G1 F1800 X-8.816 Y5.89 E64.56124
G1 X-8.886 Y5.82
G0 F3600 X-8.816 Y6.456
G1 F1800 X-6.454 Y8.819 E64.72793
G1 X-6.384 Y8.889
G0 F3600 X-7.02 Y8.819
G1 F1800 X-8.816 Y7.022 E64.85468
G1 X-8.886 Y6.952
G0 F3600 X-8.816 Y7.587
G1 F1800 X-7.585 Y8.819 E64.94157
G1 X-7.515 Y8.889
G0 F3600 X-8.151 Y8.819
G1 F1800 X-8.816 Y8.153 E64.98853
G1 X-8.886 Y8.083
G0 F3600 X-8.816 Y8.719
G1 F1800 X-8.717 Y8.819 E64.99555
G0 F3600 X-8.982 Y9.4
;TIME_ELAPSED:46.144832
;LAYER:1
M106 S255
G0 F5400 X-8.982 Y9.4 Z0.5
;TYPE:WALL-INNER
G1 F2700 X-9.11 Y9.383 E64.99984
G1 X-9.224 Y9.329 E65.00404
G1 X-9.304 Y9.257 E65.00762
G1 X-9.364 Y9.159 E65.01144
G1 X-9.396 Y9.043 E65.01544
G1 X-9.4 Y-8.984 E65.61502
G1 X-9.383 Y-9.11 E65.61925
G1 X-9.329 Y-9.224 E65.62345
G1 X-9.256 Y-9.305 E65.62707
G1 X-9.162 Y-9.363 E65.63075
G1 X-9.043 Y-9.396 E65.63485
G1 X8.982 Y-9.4 E66.23437
G1 X9.061 Y-9.394 E66.237
G1 X9.167 Y-9.361 E66.2407
G1 X9.263 Y-9.299 E66.2445
G1 X9.338 Y-9.209 E66.24839
G1 X9.38 Y-9.116 E66.25179
G1 X9.396 Y-9.039 E66.2544
G1 X9.4 Y8.987 E66.85395
G1 X9.383 Y9.111 E66.85811
G1 X9.335 Y9.214 E66.86189
G1 X9.256 Y9.305 E66.8659
G1 X9.162 Y9.363 E66.86957
G1 X9.043 Y9.396 E66.87368
G1 X-8.982 Y9.4 E67.4732
G0 F5400 X-8.976 Y9.301
G0 X9.043 Y-9.296
G0 X9.116 Y-9.791
;TYPE:WALL-OUTER
G1 F1800 X9.228 Y-9.766 E67.47701
G1 X9.339 Y-9.723 E67.48097
G1 X9.44 Y-9.667 E67.48481
G1 X9.527 Y-9.601 E67.48844
G1 X9.609 Y-9.518 E67.49232
G1 X9.675 Y-9.427 E67.49606
G1 X9.732 Y-9.321 E67.50007
G1 X9.768 Y-9.217 E67.50373
G1 X9.793 Y-9.096 E67.50784
G1 X9.8 Y-9 E67.51104
G1 X9.8 Y9.002 E68.10979
G1 X9.792 Y9.113 E68.11349
G1 X9.766 Y9.228 E68.11741
G1 X9.724 Y9.337 E68.1213
G1 X9.669 Y9.437 E68.12509
G1 X9.6 Y9.528 E68.12889
G1 X9.518 Y9.609 E68.13272
G1 X9.424 Y9.677 E68.13658
G1 X9.321 Y9.732 E68.14047
G1 X9.215 Y9.769 E68.1442
G1 X9.096 Y9.793 E68.14824
G1 X9 Y9.8 E68.15144
G1 X-9 Y9.8 E68.75012
G1 X-9.116 Y9.791 E68.75399
G1 X-9.228 Y9.766 E68.75781
G1 X-9.339 Y9.723 E68.76177
G1 X-9.44 Y9.667 E68.76561
G1 X-9.528 Y9.6 E68.76929
G1 X-9.609 Y9.518 E68.77312
G1 X-9.678 Y9.422 E68.77705
G1 X-9.732 Y9.321 E68.78086
G1 X-9.769 Y9.215 E68.7846
G1 X-9.793 Y9.096 E68.78863
G1 X-9.8 Y9 E68.79183
G1 X-9.8 Y-9.002 E69.39058
G1 X-9.791 Y-9.116 E69.39439
G1 X-9.766 Y-9.228 E69.3982
G1 X-9.723 Y-9.339 E69.40216
G1 X-9.667 Y-9.44 E69.406
G1 X-9.6 Y-9.528 E69.40968
G1 X-9.518 Y-9.609 E69.41352
G1 X-9.424 Y-9.677 E69.41738
G1 X-9.321 Y-9.732 E69.42126
G1 X-9.215 Y-9.769 E69.42499
G1 X-9.096 Y-9.793 E69.42903
G1 X-9 Y-9.8 E69.43223
G1 X9 Y-9.8 E70.03091
G1 X9.116 Y-9.791 E70.03478
G0 F5400 X9.228 Y-9.766
G0 X9.308 Y-9.735
G0 X9.125 Y-9.271
G0 X8.996 Y-8.994
;TYPE:WALL-INNER
G1 F2700 X8.996 Y8.994 E70.63307
G1 X-8.957 Y9 E71.23019
G1 X-8.995 Y8.994 E71.23147
G1 X-9 Y-8.958 E71.82855
G1 X-8.994 Y-8.994 E71.82977
G1 X8.98 Y-9 E72.42758
G1 X8.996 Y-8.994 E72.42815
G0 F5400 X8.815 Y8.72
G0 X8.768 Y8.767
G1 F1800 X8.485 Y8.484 E72.44586
;TYPE:SKIN
G1 X8.885 Y8.085
G0 F5400 X8.815 Y7.589
G1 F1800 X7.59 Y8.814 E72.50348
G1 X7.52 Y8.884
G0 F5400 X7.024 Y8.814
G1 F1800 X8.815 Y7.023 E72.58772
G1 X8.885 Y6.953
G0 F5400 X8.815 Y6.458
G1 F1800 X6.458 Y8.814 E72.69856
G1 X6.388 Y8.884
G0 F5400 X5.892 Y8.815
G1 F1800 X8.815 Y5.892 E72.83605
G1 X8.885 Y5.822
G0 F5400 X8.815 Y5.326
G1 F1800 X5.326 Y8.815 E73.00016
G1 X5.256 Y8.885
G0 F5400 X4.76 Y8.815
