;FLAVOR:Marlin
;TIME:4752
;Filament used: 4.88665m
;Layer height: 0.2
;Generated with Cura_SteamEngine 3.2.1
M104 S210
M109 S210
M82 ;absolute extrusion mode
G21 ;metric values
G90 ;absolute positioning
M82 ;set extruder to absolute mode
M107 ;start with the fan off
G28 ;Home all axes (max endstops)
G1 Z15.0 F9000 ;move the platform down 15mm
G92 E0 ;zero the extruded length
G1 F200 E3 ;extrude 3mm of feed stock
G92 E0 ;zero the extruded length again
G1 F9000
;Put printing message on LCD screen
M117 Printing...
;LAYER_COUNT:8
;LAYER:0
M107
G0 F3600 X-16.045 Y26.059 Z0.3
;TYPE:WALL-INNER
G1 F1800 X-11.411 Y28.395 E0.2589
G1 X-6.447 Y29.915 E0.51791
G1 X-1.299 Y30.575 E0.77685
G1 X3.887 Y30.354 E1.03581
G1 X8.962 Y29.261 E1.29481
G1 X13.777 Y27.325 E1.55372
G1 X18.197 Y24.604 E1.81267
G1 X22.094 Y21.175 E2.07164
G1 X25.354 Y17.136 E2.3306
G1 X27.886 Y12.605 E2.58955
G1 X29.614 Y7.711 E2.84849
G1 X30.49 Y2.607 E3.10685
G1 X30.6 Y0.00 E3.23703
G1 X30.49 Y-2.607 E3.36721
G1 X29.614 Y-7.711 E3.62557
G1 X27.886 Y-12.605 E3.88451
G1 X25.354 Y-17.136 E4.14346
G1 X22.094 Y-21.175 E4.40242
G1 X18.197 Y-24.604 E4.66139
G1 X13.777 Y-27.325 E4.92034
G1 X8.962 Y-29.261 E5.17925
G1 X3.887 Y-30.354 E5.43825
G1 X-1.299 Y-30.575 E5.69721
G1 X-6.447 Y-29.915 E5.95615
G1 X-11.411 Y-28.395 E6.21515
G1 X-16.044 Y-26.059 E6.47401
G1 X-20.218 Y-22.972 E6.73302
G1 X-23.809 Y-19.225 E6.99195
G1 X-26.715 Y-14.925 E7.25087
G1 X-28.854 Y-10.195 E7.50986
G1 X-30.162 Y-5.172 E7.76881
G1 X-30.602 Y0.00 E8.02778
G1 X-30.162 Y5.172 E8.28674
G1 X-28.854 Y10.195 E8.5457
G1 X-26.715 Y14.925 E8.80469
G1 X-23.809 Y19.225 E9.06361
G1 X-20.233 Y22.957 E9.32148
G1 X-16.045 Y26.059 E9.58149
G0 F3600 X-16.097 Y26.144
G0 X-20.259 Y22.987
G0 X-23.84 Y19.25
G0 X-39.216 Y-2.114
G0 X-36.106 Y-15.8
G0 X-63.287 Y-31.534
G0 X-63.256 Y-31.44
G1 F1800 X-63.343 Y-31.232 E9.59274
G1 X-66.472 Y-23.79 E9.99551
G1 X-68.656 Y-16.458 E10.37718
G1 X-70.033 Y-8.933 E10.75884
G1 X-70.589 Y-1.303 E11.14051
G1 X-70.315 Y6.342 E11.52217
G1 X-69.216 Y13.913 E11.90385
G1 X-67.305 Y21.32 E12.28548
G1 X-64.603 Y28.478 E12.66719
G1 X-61.142 Y35.3 E13.04884
G1 X-56.964 Y41.709 E13.43053
G1 X-52.117 Y47.627 E13.81217
G1 X-46.657 Y52.987 E14.19389
G1 X-40.65 Y57.725 E14.57558
G1 X-34.166 Y61.784 E14.95723
G1 X-27.28 Y65.117 E15.3389
G1 X-20.078 Y67.685 E15.72036
G1 X-12.633 Y69.461 E16.10222
G1 X-4.624 Y70.474 E16.50497
G1 X-4.4 Y70.502 E16.51624
G1 X-4.4 Y70.277 E16.52326
G1 X-4.4 Y70.276 E16.52331
G1 X-4.4 Y39.194 E18.07399
G1 X-10.399 Y38.002 E18.37914
G1 X-15.669 Y36.149 E18.65784
G1 X-20.62 Y33.572 E18.9363
G1 X-25.16 Y30.319 E19.21494
G1 X-29.192 Y26.459 E19.49342
G1 X-32.64 Y22.066 E19.77204
G1 X-35.427 Y17.238 E20.05016
G1 X-37.51 Y12.051 E20.32902
G1 X-38.837 Y6.625 E20.60771
G1 X-39.383 Y1.076 E20.88588
G1 X-39.14 Y-4.507 E21.16468
G1 X-38.109 Y-9.996 E21.44332
G1 X-36.143 Y-15.786 E21.74838
G1 X-63.061 Y-31.327 E23.29908
G1 X-63.256 Y-31.44 E23.3061
G0 F3600 X-63.287 Y-31.534
G0 X-58.954 Y-39.042
G0 X-58.856 Y-39.061
G1 F1800 X-58.661 Y-38.948 E23.31734
G1 X-31.743 Y-23.407 E24.86804
G1 X-27.708 Y-28.009 E25.17339
G1 X-23.472 Y-31.644 E25.45187
G1 X-18.764 Y-34.644 E25.73038
G1 X-13.68 Y-36.947 E26.00884
G1 X-8.319 Y-38.51 E26.28743
G1 X-2.791 Y-39.299 E26.56602
G1 X2.791 Y-39.299 E26.84451
G1 X8.319 Y-38.51 E27.1231
G1 X13.68 Y-36.947 E27.40169
G1 X18.764 Y-34.644 E27.68015
G1 X23.472 Y-31.644 E27.95866
G1 X27.708 Y-28.009 E28.23714
G1 X31.743 Y-23.407 E28.54249
G1 X58.661 Y-38.948 E30.09319
G1 X58.856 Y-39.061 E30.10443
G1 X58.72 Y-39.241 E30.11147
G1 X53.839 Y-45.671 E30.51422
G1 X48.582 Y-51.228 E30.89586
G1 X42.753 Y-56.184 E31.27758
G1 X36.423 Y-60.48 E31.65924
G1 X29.665 Y-64.067 E32.04095
G1 X22.559 Y-66.9 E32.42261
G1 X15.188 Y-68.948 E32.80428
G1 X7.639 Y-70.186 E33.18593
G1 X0.00 Y-70.601 E33.5676
G1 X-7.596 Y-70.189 E33.94713
G1 X-15.188 Y-68.948 E34.33092
G1 X-22.559 Y-66.9 E34.71259
G1 X-29.665 Y-64.067 E35.09425
G1 X-36.423 Y-60.48 E35.47595
G1 X-42.753 Y-56.184 E35.85762
G1 X-48.582 Y-51.228 E36.23933
G1 X-53.839 Y-45.671 E36.62097
G1 X-58.72 Y-39.241 E37.02372
G1 X-58.856 Y-39.061 E37.03077
G0 F3600 X-58.954 Y-39.042
G0 X-53.869 Y-45.696
G0 X-48.609 Y-51.257
G0 X-42.777 Y-56.215
G0 X-36.443 Y-60.514
G0 X-29.681 Y-64.103
G0 X6.123 Y-79.063
G0 X6.13 Y-79.162
G1 F1800 X14.233 Y-78.113 E37.4384
G1 X22.189 Y-76.235 E37.84623
G1 X29.915 Y-73.549 E38.25432
G1 X37.317 Y-70.083 E38.66208
G1 X44.321 Y-65.877 E39.06968
G1 X50.856 Y-60.973 E39.4773
G1 X56.871 Y-55.407 E39.88616
G1 X62.254 Y-49.282 E40.29298
G1 X66.995 Y-42.613 E40.7012
G1 X71.022 Y-35.498 E41.10908
G1 X74.292 Y-28.015 E41.5165
G1 X76.78 Y-20.222 E41.92463
G1 X78.454 Y-12.214 E42.33279
G1 X79.294 Y-4.079 E42.7408
G1 X79.4 Y-0.005 E42.94412
G1 X79.294 Y4.079 E43.14794
G1 X78.454 Y12.214 E43.55596
G1 X76.78 Y20.222 E43.96411
G1 X74.293 Y28.012 E44.37208
G1 X71.022 Y35.499 E44.7797
G1 X66.995 Y42.612 E45.1875
G1 X62.224 Y49.317 E45.59805
G1 X56.871 Y55.407 E46.00257
G1 X50.856 Y60.973 E46.41143
G1 X44.321 Y65.877 E46.81905
G1 X37.317 Y70.083 E47.22665
G1 X29.915 Y73.549 E47.63442
G1 X22.189 Y76.235 E48.0425
G1 X14.233 Y78.113 E48.45033
G1 X6.13 Y79.162 E48.85797
G1 X-2.049 Y79.372 E49.26615
G1 X-10.185 Y78.743 E49.67327
G1 X-18.244 Y77.274 E50.08196
G1 X-26.084 Y74.992 E50.48933
G1 X-33.656 Y71.913 E50.89714
G1 X-40.875 Y68.069 E51.30517
G1 X-47.658 Y63.506 E51.71302
G1 X-53.936 Y58.268 E52.12093
G1 X-59.637 Y52.419 E52.52843
G1 X-64.71 Y46.009 E52.93626
G1 X-69.102 Y39.104 E53.34453
G1 X-72.756 Y31.792 E53.75234
G1 X-75.639 Y24.147 E54.15997
G1 X-77.719 Y16.245 E54.56763
G1 X-78.979 Y8.16 E54.97586
G1 X-79.399 Y-0.005 E55.38375
G1 X-78.979 Y-8.16 E55.79115
G1 X-77.719 Y-16.247 E56.19948
G1 X-75.639 Y-24.147 E56.60704
G1 X-72.756 Y-31.792 E57.01467
G1 X-69.102 Y-39.104 E57.42248
G1 X-64.71 Y-46.009 E57.83076
G1 X-59.637 Y-52.419 E58.23859
G1 X-53.936 Y-58.268 E58.64608
G1 X-47.658 Y-63.506 E59.05399
G1 X-40.875 Y-68.069 E59.46184
G1 X-33.656 Y-71.913 E59.86988
G1 X-26.084 Y-74.992 E60.27768
G1 X-18.244 Y-77.274 E60.68505
G1 X-10.185 Y-78.743 E61.09374
G1 X-2.068 Y-79.371 E61.49991
G1 X6.13 Y-79.162 E61.90904
G0 F3600 X6.123 Y-79.063
G0 X36.443 Y-60.514
G0 X42.777 Y-56.215
G0 X48.609 Y-51.257
G0 X53.869 Y-45.696
G0 X58.895 Y-39.054
G0 X63.287 Y-31.534
G0 X63.256 Y-31.44
G1 F1800 X63.061 Y-31.327 E61.92029
G1 X36.143 Y-15.786 E63.47098
G1 X38.109 Y-9.996 E63.77605
G1 X39.14 Y-4.507 E64.05468
G1 X39.383 Y1.076 E64.33348
G1 X38.837 Y6.625 E64.61166
G1 X37.51 Y12.051 E64.89034
G1 X35.427 Y17.238 E65.16921
G1 X32.64 Y22.066 E65.44733
G1 X29.192 Y26.459 E65.72595
G1 X25.16 Y30.319 E66.00442
G1 X20.62 Y33.572 E66.28307
G1 X15.669 Y36.149 E66.56153
G1 X10.398 Y38.002 E66.84028
G1 X4.4 Y39.194 E67.14537
G1 X4.4 Y70.276 E68.69606
G1 X4.4 Y70.277 E68.69611
G1 X4.4 Y70.502 E68.70733
G1 X4.624 Y70.474 E68.71438
G1 X12.633 Y69.461 E69.11713
G1 X20.074 Y67.687 E69.49877
G1 X27.28 Y65.117 E69.88046
G1 X34.166 Y61.784 E70.26213
G1 X40.65 Y57.725 E70.64377
G1 X46.657 Y52.987 E71.02547
G1 X52.117 Y47.627 E71.40719
G1 X56.964 Y41.709 E71.78883
G1 X61.142 Y35.3 E72.17052
G1 X64.593 Y28.497 E72.55109
G1 X67.305 Y21.321 E72.93382
G1 X69.216 Y13.913 E73.3155
G1 X70.315 Y6.342 E73.69718
G1 X70.589 Y-1.303 E74.07884
G1 X70.033 Y-8.933 E74.46051
G1 X68.656 Y-16.458 E74.84217
G1 X66.472 Y-23.79 E75.22384
G1 X63.343 Y-31.232 E75.62661
G1 X63.256 Y-31.44 E75.63363
G0 F3600 X63.063 Y-30.867
;TYPE:WALL-OUTER
G1 F1800 X62.868 Y-30.754 E75.64488
G1 X36.627 Y-15.604 E77.15657
G1 X38.496 Y-10.101 E77.44652
G1 X39.539 Y-4.55 E77.7283
G1 X39.784 Y1.084 E78.00965
G1 X39.232 Y6.696 E78.29099
G1 X37.893 Y12.169 E78.57209
G1 X35.788 Y17.412 E78.85396
G1 X32.97 Y22.294 E79.13518
G1 X29.489 Y26.729 E79.41646
G1 X25.418 Y30.626 E79.69762
G1 X20.827 Y33.915 E79.97938
G1 X15.832 Y36.515 E80.26032
G1 X10.504 Y38.388 E80.54208
G1 X4.8 Y39.522 E80.83223
G1 X4.8 Y69.822 E82.3439
G1 X4.8 Y69.823 E82.34395
G1 X4.8 Y70.048 E82.35517
G1 X5.024 Y70.02 E82.36222
G1 X12.561 Y69.067 E82.74124
G1 X19.96 Y67.303 E83.12072
G1 X27.125 Y64.748 E83.50023
G1 X33.972 Y61.433 E83.87976
G1 X40.419 Y57.397 E84.25923
G1 X46.392 Y52.686 E84.63876
G1 X51.821 Y47.357 E85.01829
G1 X56.641 Y41.472 E85.3978
G1 X60.795 Y35.1 E85.77729
G1 X64.226 Y28.335 E86.15572
G1 X66.923 Y21.2 E86.53627
G1 X68.823 Y13.834 E86.91579
G1 X69.916 Y6.306 E87.2953
G1 X70.188 Y-1.296 E87.67481
G1 X69.636 Y-8.882 E88.05428
G1 X68.266 Y-16.365 E88.43381
G1 X66.095 Y-23.655 E88.8133
G1 X63.15 Y-30.659 E89.19236
G1 X63.063 Y-30.867 E89.19938
G0 F3600 X62.89 Y-30.767
G0 X62.641 Y-31.2
G0 X58.895 Y-39.054
G0 X53.869 Y-45.696
G0 X48.609 Y-51.257
G0 X42.777 Y-56.215
G0 X37.077 Y-60.084
G0 X6.123 Y-79.063
G0 X6.162 Y-79.561
G1 F1800 X14.3 Y-78.508 E89.60878
G1 X22.304 Y-76.619 E90.01907
G1 X30.065 Y-73.92 E90.42901
G1 X37.507 Y-70.436 E90.83897
G1 X44.544 Y-66.21 E91.24849
G1 X51.117 Y-61.278 E91.65846
G1 X57.152 Y-55.693 E92.0687
G1 X62.571 Y-49.527 E92.47824
G1 X67.332 Y-42.83 E92.88818
G1 X71.382 Y-35.673 E93.29845
G1 X74.666 Y-28.159 E93.70756
G1 X77.169 Y-20.32 E94.11811
G1 X78.849 Y-12.279 E94.52794
G1 X79.694 Y-4.105 E94.93791
G1 X79.8 Y-0.005 E95.14253
G1 X79.694 Y4.105 E95.34765
G1 X78.849 Y12.279 E95.75762
G1 X77.169 Y20.32 E96.16745
G1 X74.667 Y28.156 E96.57784
G1 X71.382 Y35.674 E96.98715
G1 X67.332 Y42.829 E97.39734
G1 X62.541 Y49.562 E97.80961
G1 X57.152 Y55.693 E98.21685
G1 X51.117 Y61.278 E98.62708
G1 X44.544 Y66.21 E99.03706
G1 X37.507 Y70.436 E99.44658
G1 X30.065 Y73.92 E99.85654
G1 X22.304 Y76.619 E100.26648
G1 X14.3 Y78.508 E100.67677
G1 X6.162 Y79.561 E101.08616
G1 X-2.06 Y79.773 E101.4965
G1 X-10.24 Y79.14 E101.90582
G1 X-18.331 Y77.665 E102.31613
G1 X-26.221 Y75.369 E102.7261
G1 X-33.821 Y72.278 E103.13542
G1 X-41.081 Y68.412 E103.54578
G1 X-47.897 Y63.827 E103.95561
G1 X-54.207 Y58.563 E104.36557
G1 X-59.941 Y52.679 E104.77546
G1 X-65.039 Y46.238 E105.18528
G1 X-69.449 Y39.304 E105.59526
G1 X-73.121 Y31.957 E106.00503
G1 X-76.022 Y24.264 E106.41522
G1 X-78.11 Y16.331 E106.82448
G1 X-79.377 Y8.204 E107.23483
G1 X-79.799 Y0.00 E107.64467
G1 X-79.377 Y-8.204 E108.05451
G1 X-78.11 Y-16.333 E108.46497
G1 X-76.022 Y-24.264 E108.87413
G1 X-73.121 Y-31.957 E109.28432
G1 X-69.449 Y-39.304 E109.69409
G1 X-65.039 Y-46.238 E110.10407
G1 X-59.941 Y-52.679 E110.51389
G1 X-54.207 Y-58.563 E110.92378
G1 X-47.897 Y-63.827 E111.33374
G1 X-41.081 Y-68.412 E111.74357
G1 X-33.821 Y-72.278 E112.15393
G1 X-26.221 Y-75.369 E112.56326
G1 X-18.331 Y-77.665 E112.97322
G1 X-10.24 Y-79.14 E113.38353
G1 X-2.079 Y-79.772 E113.7919
G1 X6.162 Y-79.561 E114.20318
G0 F3600 X6.36 Y-79.536
G0 X6.296 Y-79.04
G0 X-29.681 Y-64.103
G0 X-36.443 Y-60.514
G0 X-42.777 Y-56.215
G0 X-48.609 Y-51.257
G0 X-53.869 Y-45.696
G0 X-58.66 Y-39.483
G0 X-58.263 Y-39.181
G1 F1800 X-58.068 Y-39.068 E114.21443
G1 X-31.827 Y-23.918 E115.72612
G1 X-27.992 Y-28.292 E116.01634
G1 X-23.712 Y-31.965 E116.29772
G1 X-18.955 Y-34.996 E116.57913
G1 X-13.817 Y-37.324 E116.86055
G1 X-8.403 Y-38.902 E117.14189
G1 X-2.82 Y-39.699 E117.42325
G1 X2.82 Y-39.699 E117.70463
G1 X8.403 Y-38.902 E117.986
G1 X13.817 Y-37.324 E118.26734
G1 X18.955 Y-34.996 E118.54876
G1 X23.712 Y-31.965 E118.83017
G1 X27.992 Y-28.292 E119.11155
G1 X31.827 Y-23.918 E119.40177
G1 X58.068 Y-39.068 E120.91346
G1 X58.263 Y-39.181 E120.9247
G1 X58.127 Y-39.361 E120.93174
G1 X53.534 Y-45.412 E121.31075
G1 X48.306 Y-50.937 E121.69023
G1 X42.51 Y-55.865 E122.06979
G1 X36.216 Y-60.137 E122.4493
G1 X29.497 Y-63.703 E122.82879
G1 X22.431 Y-66.52 E123.2083
G1 X15.102 Y-68.557 E123.5878
G1 X7.596 Y-69.788 E123.96728
G1 X0.00 Y-70.2 E124.34681
G1 X-7.553 Y-69.791 E124.72418
G1 X-15.102 Y-68.557 E125.1058
G1 X-22.431 Y-66.52 E125.4853
G1 X-29.497 Y-63.703 E125.86481
G1 X-36.216 Y-60.137 E126.24431
G1 X-42.51 Y-55.865 E126.62382
G1 X-48.306 Y-50.937 E127.00337
G1 X-53.534 Y-45.412 E127.38286
G1 X-58.127 Y-39.361 E127.76186
G1 X-58.263 Y-39.181 E127.7689
G0 F3600 X-58.09 Y-39.081
G0 X-58.341 Y-38.649
G0 X-62.813 Y-31.299
G0 X-63.063 Y-30.867
G1 F1800 X-63.15 Y-30.659 E127.78015
G1 X-66.095 Y-23.655 E128.15921
G1 X-68.266 Y-16.365 E128.5387
G1 X-69.636 Y-8.882 E128.91823
G1 X-70.188 Y-1.296 E129.2977
G1 X-69.916 Y6.306 E129.67721
G1 X-68.823 Y13.834 E130.05672
G1 X-66.923 Y21.199 E130.43619
G1 X-64.236 Y28.316 E130.81572
G1 X-60.795 Y35.1 E131.19523
G1 X-56.641 Y41.472 E131.57471
G1 X-51.821 Y47.357 E131.95423
G1 X-46.392 Y52.686 E132.33376
G1 X-40.419 Y57.397 E132.71329
G1 X-33.972 Y61.433 E133.09276
G1 X-27.125 Y64.748 E133.47229
G1 X-19.964 Y67.301 E133.85158
G1 X-12.561 Y69.067 E134.23128
G1 X-5.024 Y70.02 E134.61029
G1 X-4.8 Y70.048 E134.62155
G1 X-4.8 Y69.823 E134.62858
G1 X-4.8 Y69.822 E134.62863
G1 X-4.8 Y39.522 E136.1403
G1 X-10.505 Y38.388 E136.43049
G1 X-15.832 Y36.515 E136.71221
G1 X-20.827 Y33.915 E136.99315
G1 X-25.418 Y30.626 E137.2749
G1 X-29.489 Y26.729 E137.55606
G1 X-32.97 Y22.294 E137.83734
G1 X-35.788 Y17.412 E138.11857
G1 X-37.893 Y12.169 E138.40044
G1 X-39.232 Y6.696 E138.68154
G1 X-39.784 Y1.084 E138.96288
G1 X-39.539 Y-4.55 E139.24422
G1 X-38.496 Y-10.101 E139.52601
G1 X-36.627 Y-15.604 E139.81596
G1 X-62.868 Y-30.754 E141.32765
G1 X-63.063 Y-30.867 E141.33467
G0 F3600 X-63.14 Y-30.683
G0 X-63.6 Y-30.877
G0 X-63.268 Y-31.477
G0 X-36.106 Y-15.8
G0 X-39.236 Y-1.645
G0 X-23.84 Y19.25
G0 X-20.259 Y22.987
G0 X-16.06 Y26.163
G0 X-15.834 Y25.717
G1 F1800 X-11.261 Y28.023 E141.59018
G1 X-6.362 Y29.523 E141.8458
G1 X-1.282 Y30.174 E142.10131
G1 X3.836 Y29.956 E142.35688
G1 X8.844 Y28.877 E142.61246
G1 X13.596 Y26.967 E142.86798
G1 X17.958 Y24.281 E143.12355
G1 X21.804 Y20.897 E143.37913
G1 X25.021 Y16.911 E143.63467
G1 X27.52 Y12.44 E143.89021
G1 X29.226 Y7.61 E144.14577
G1 X30.091 Y2.565 E144.40114
G1 X30.2 Y0.00 E144.52922
G1 X30.091 Y-2.565 E144.65731
G1 X29.226 Y-7.61 E144.91268
G1 X27.52 Y-12.44 E145.16824
G1 X25.021 Y-16.911 E145.42377
G1 X21.804 Y-20.897 E145.67932
G1 X17.958 Y-24.281 E145.9349
G1 X13.596 Y-26.967 E146.19047
G1 X8.844 Y-28.877 E146.44598
G1 X3.836 Y-29.956 E146.70157
G1 X-1.282 Y-30.174 E146.95714
G1 X-6.362 Y-29.523 E147.21265
G1 X-11.261 Y-28.023 E147.46826
G1 X-15.834 Y-25.717 E147.72378
G1 X-19.953 Y-22.671 E147.97936
G1 X-23.497 Y-18.973 E148.2349
G1 X-26.365 Y-14.729 E148.49045
G1 X-28.475 Y-10.061 E148.74602
G1 X-29.766 Y-5.104 E149.00158
G1 X-30.201 Y0.00 E149.25714
G1 X-29.766 Y5.104 E149.5127
G1 X-28.475 Y10.061 E149.76826
G1 X-26.365 Y14.729 E150.02383
G1 X-23.497 Y18.973 E150.27938
G1 X-19.968 Y22.656 E150.53386
G1 X-15.834 Y25.717 E150.79049
G0 F3600 X-15.656 Y25.807
G0 X-15.882 Y26.252
G0 X-16.25 Y26.392
;TYPE:SKIN
G1 F1800 X-11.557 Y28.758 E151.0527
G1 X-6.529 Y30.297 E151.31503
G1 X-1.316 Y30.967 E151.57725
G1 X3.936 Y30.742 E151.83951
G1 X9.077 Y29.635 E152.10188
G1 X13.953 Y27.674 E152.36408
G1 X18.429 Y24.918 E152.62632
G1 X22.377 Y21.446 E152.88862
G1 X25.678 Y17.355 E153.15088
G1 X28.243 Y12.767 E153.41312
G1 X29.993 Y7.81 E153.67538
G1 X30.878 Y2.648 E153.93667
G1 X30.99 Y0.00 E154.0689
G1 X30.878 Y-2.648 E154.20113
G1 X29.993 Y-7.81 E154.46242
G1 X28.243 Y-12.767 E154.72468
G1 X25.678 Y-17.355 E154.98692
G1 X22.377 Y-21.446 E155.24918
G1 X18.429 Y-24.918 E155.51148
G1 X13.953 Y-27.674 E155.77372
G1 X9.077 Y-29.635 E156.03592
G1 X3.936 Y-30.742 E156.29829
G1 X-1.316 Y-30.967 E156.56055
G1 X-6.529 Y-30.297 E156.82277
G1 X-11.557 Y-28.758 E157.08511
G1 X-16.249 Y-26.392 E157.34727
G1 X-20.477 Y-23.266 E157.6096
G1 X-24.113 Y-19.471 E157.87181
G1 X-27.056 Y-15.116 E158.13404
G1 X-29.223 Y-10.326 E158.39633
G1 X-30.548 Y-5.238 E158.65864
G1 X-30.994 Y0.00 E158.92091
G1 X-30.548 Y5.238 E159.18318
G1 X-29.223 Y10.326 E159.44548
G1 X-27.056 Y15.116 E159.70778
G1 X-24.113 Y19.471 E159.97001
G1 X-20.492 Y23.251 E160.23116
G1 X-16.25 Y26.392 E160.49449
G0 F3600 X-20.416 Y33.238
G1 F1800 X-24.915 Y30.014 E160.77063
G1 X-28.904 Y26.197 E161.04607
G1 X-32.312 Y21.855 E161.32146
G1 X-35.075 Y17.068 E161.59721
G1 X-37.137 Y11.931 E161.87337
G1 X-38.452 Y6.557 E162.14939
G1 X-38.991 Y1.068 E162.42455
G1 X-38.752 Y-4.46 E162.7006
