;FLAVOR:Marlin
;TIME:1184
;Filament used: 1.24375m
;Layer height: 0.2
;Generated with Cura_SteamEngine 3.2.1
M104 S210
M109 S210
M82 ;absolute extrusion mode
G21 ;metric values
G90 ;absolute positioning
M82 ;set extruder to absolute mode
M107 ;start with the fan off
G28 ;Home all axes (max endstops)
G1 Z15.0 F9000 ;move the platform down 15mm
G92 E0 ;zero the extruded length
G1 F200 E3 ;extrude 3mm of feed stock
G92 E0 ;zero the extruded length again
G1 F9000
;Put printing message on LCD screen
M117 Printing...
;LAYER_COUNT:169
;LAYER:0
M107
G0 F3600 X0.433 Y-11.714 Z0.3
;TYPE:SKIRT
G1 F1800 X7.178 Y-11.784 E0.33653
G1 X7.809 Y-11.75 E0.36805
G1 X8.515 Y-11.616 E0.40391
G1 X9.015 Y-11.483 E0.42972
G1 X9.615 Y-11.282 E0.46129
G1 X10.184 Y-11.007 E0.49282
G1 X10.603 Y-10.743 E0.51752
G1 X11.026 Y-10.446 E0.54331
G1 X11.52 Y-10.051 E0.57487
G1 X11.959 Y-9.597 E0.60637
G1 X12.244 Y-9.229 E0.62959
G1 X12.542 Y-8.805 E0.65545
G1 X12.872 Y-8.266 E0.68698
G1 X13.131 Y-7.689 E0.71853
G1 X13.282 Y-7.218 E0.74321
G1 X13.415 Y-6.719 E0.76897
G1 X13.539 Y-6.099 E0.80052
G1 X13.584 Y-5.424 E0.83427
G1 X13.568 Y5.566 E1.38256
G1 X13.527 Y6.197 E1.41411
G1 X13.407 Y6.818 E1.44567
G1 X13.265 Y7.273 E1.46945
G1 X13.088 Y7.758 E1.4952
G1 X12.834 Y8.337 E1.52675
G1 X12.509 Y8.879 E1.55828
G1 X12.221 Y9.258 E1.58202
G1 X11.887 Y9.656 E1.60795
G1 X11.451 Y10.114 E1.63949
G1 X10.96 Y10.513 E1.67106
G1 X10.568 Y10.766 E1.69433
G1 X10.122 Y11.025 E1.72007
G1 X9.556 Y11.307 E1.75161
G1 X8.96 Y11.516 E1.78312
G1 X8.469 Y11.627 E1.80824
G1 X7.958 Y11.716 E1.83412
G1 X7.075 Y11.79 E1.87832
G1 X-.162 Y11.753 E2.23938
G1 X-7.073 Y11.79 E2.58418
G1 X-7.958 Y11.716 E2.62849
G1 X-8.469 Y11.627 E2.65436
G1 X-9.084 Y11.479 E2.68592
G1 X-9.675 Y11.255 E2.71745
G1 X-10.122 Y11.025 E2.74253
G1 X-10.568 Y10.766 E2.76827
G1 X-11.093 Y10.414 E2.7998
G1 X-11.57 Y10 E2.83131
G1 X-11.887 Y9.656 E2.85465
G1 X-12.221 Y9.258 E2.88057
G1 X-12.596 Y8.749 E2.91211
G1 X-12.904 Y8.197 E2.94365
G1 X-13.088 Y7.758 E2.9674
G1 X-13.265 Y7.273 E2.99315
G1 X-13.444 Y6.667 E3.02468
G1 X-13.545 Y6.043 E3.05622
G1 X-13.568 Y5.566 E3.08004
G1 X-13.584 Y-5.423 E3.62829
G1 X-13.545 Y-6.054 E3.65983
G1 X-13.416 Y-6.715 E3.69343
G1 X-13.283 Y-7.215 E3.71924
G1 X-13.082 Y-7.815 E3.75081
G1 X-12.807 Y-8.384 E3.78234
G1 X-12.543 Y-8.803 E3.80704
G1 X-12.246 Y-9.226 E3.83283
G1 X-11.851 Y-9.72 E3.86439
G1 X-11.397 Y-10.159 E3.89589
G1 X-11.029 Y-10.444 E3.91911
G1 X-10.605 Y-10.742 E3.94497
G1 X-10.066 Y-11.072 E3.9765
G1 X-9.489 Y-11.331 E4.00805
G1 X-9.015 Y-11.483 E4.03289
G1 X-8.515 Y-11.616 E4.0587
G1 X-7.895 Y-11.74 E4.09025
G1 X-7.231 Y-11.784 E4.12344
G1 X-.391 Y-11.786 E4.46469
G1 X0.239 Y-11.746 E4.49619
G1 X0.433 Y-11.714 E4.506
G0 F3600 X0.406 Y-11.314
G1 F1800 X7.182 Y-11.384 E4.84407
G1 X7.788 Y-11.35 E4.87435
G1 X8.412 Y-11.229 E4.90606
G1 X8.912 Y-11.096 E4.93188
G1 X9.487 Y-10.902 E4.96215
G1 X10.031 Y-10.634 E4.99241
G1 X10.373 Y-10.416 E5.01264
G1 X10.796 Y-10.119 E5.03843
G1 X11.268 Y-9.738 E5.06869
G1 X11.687 Y-9.299 E5.09897
G1 X11.916 Y-8.999 E5.1178
G1 X12.214 Y-8.575 E5.14365
G1 X12.53 Y-8.057 E5.17392
G1 X12.774 Y-7.502 E5.20417
G1 X12.896 Y-7.115 E5.22441
G1 X13.029 Y-6.616 E5.25018
G1 X13.146 Y-6.021 E5.28043
G1 X13.184 Y-5.424 E5.31028
G1 X13.168 Y5.566 E5.85857
G1 X13.127 Y6.171 E5.88882
G1 X13.007 Y6.765 E5.91906
G1 X12.889 Y7.136 E5.93848
G1 X12.712 Y7.621 E5.96424
G1 X12.467 Y8.176 E5.9945
G1 X12.152 Y8.693 E6.02471
G1 X11.915 Y9.001 E6.0441
G1 X11.581 Y9.399 E6.07002
G1 X11.161 Y9.837 E6.10029
G1 X10.688 Y10.216 E6.13053
G1 X10.367 Y10.42 E6.14951
G1 X9.921 Y10.679 E6.17524
G1 X9.378 Y10.948 E6.20547
G1 X8.804 Y11.144 E6.23573
G1 X8.4 Y11.233 E6.25637
G1 X7.889 Y11.322 E6.28225
G1 X7.077 Y11.39 E6.3229
G1 X-.162 Y11.353 E6.68406
G1 X-7.075 Y11.39 E7.02896
G1 X-7.889 Y11.322 E7.06971
G1 X-8.4 Y11.233 E7.09559
G1 X-8.989 Y11.09 E7.12583
G1 X-9.555 Y10.87 E7.15612
G1 X-9.921 Y10.679 E7.17672
G1 X-10.367 Y10.42 E7.20245
G1 X-10.87 Y10.082 E7.23268
G1 X-11.324 Y9.68 E7.26294
G1 X-11.581 Y9.399 E7.28193
G1 X-11.915 Y9.001 E7.30786
G1 X-12.273 Y8.512 E7.33809
G1 X-12.564 Y7.98 E7.36834
G1 X-12.712 Y7.621 E7.38772
G1 X-12.889 Y7.136 E7.41348
G1 X-13.059 Y6.554 E7.44372
G1 X-13.151 Y5.955 E7.47396
G1 X-13.168 Y5.566 E7.49338
G1 X-13.184 Y-5.423 E8.04163
G1 X-13.145 Y-6.028 E8.07188
G1 X-13.029 Y-6.612 E8.10158
G1 X-12.896 Y-7.112 E8.12739
G1 X-12.702 Y-7.687 E8.15767
G1 X-12.434 Y-8.231 E8.18792
G1 X-12.216 Y-8.573 E8.20816
G1 X-11.919 Y-8.996 E8.23394
G1 X-11.538 Y-9.468 E8.26421
G1 X-11.099 Y-9.887 E8.29448
G1 X-10.799 Y-10.116 E8.31331
G1 X-10.375 Y-10.414 E8.33917
G1 X-9.857 Y-10.73 E8.36944
G1 X-9.302 Y-10.974 E8.39969
G1 X-8.912 Y-11.096 E8.42007
G1 X-8.412 Y-11.229 E8.44589
G1 X-7.818 Y-11.346 E8.47609
G1 X-7.231 Y-11.384 E8.50544
G1 X-.391 Y-11.386 E8.84669
G1 X0.214 Y-11.346 E8.87694
G1 X0.406 Y-11.314 E8.88665
G0 F3600 X0.331 Y-10.913
G1 F1800 X7.187 Y-10.984 E9.22871
G1 X7.765 Y-10.95 E9.2576
G1 X8.31 Y-10.843 E9.28531
G1 X8.81 Y-10.71 E9.31112
G1 X9.358 Y-10.523 E9.34001
G1 X9.875 Y-10.262 E9.3689
G1 X10.143 Y-10.088 E9.38484
G1 X10.566 Y-9.791 E9.41063
G1 X11.016 Y-9.427 E9.4395
G1 X11.412 Y-9.003 E9.46845
G1 X11.589 Y-8.769 E9.48309
G1 X11.887 Y-8.345 E9.50894
G1 X12.187 Y-7.849 E9.53786
G1 X12.415 Y-7.317 E9.56674
G1 X12.509 Y-7.012 E9.58266
G1 X12.642 Y-6.513 E9.60843
G1 X12.753 Y-5.944 E9.63735
G1 X12.784 Y-5.425 E9.66329
G1 X12.768 Y5.565 E10.21158
G1 X12.727 Y6.143 E10.24049
G1 X12.607 Y6.71 E10.26941
G1 X12.513 Y6.999 E10.28457
G1 X12.336 Y7.484 E10.31032
G1 X12.101 Y8.013 E10.3392
G1 X11.795 Y8.505 E10.36811
G1 X11.608 Y8.744 E10.38325
G1 X11.274 Y9.142 E10.40917
G1 X10.872 Y9.559 E10.43807
G1 X10.416 Y9.917 E10.46699
G1 X10.166 Y10.074 E10.48172
G1 X9.72 Y10.333 E10.50745
G1 X9.2 Y10.589 E10.53637
G1 X8.65 Y10.77 E10.56525
G1 X8.332 Y10.839 E10.58149
G1 X7.821 Y10.928 E10.60737
G1 X7.079 Y10.99 E10.64451
G1 X-.163 Y10.953 E11.00582
G1 X-7.078 Y10.99 E11.35082
G1 X-7.821 Y10.928 E11.38802
G1 X-8.332 Y10.839 E11.41389
G1 X-8.894 Y10.7 E11.44278
G1 X-9.432 Y10.486 E11.47166
G1 X-9.72 Y10.333 E11.48793
G1 X-10.166 Y10.074 E11.51366
G1 X-10.646 Y9.749 E11.54258
G1 X-11.076 Y9.362 E11.57145
G1 X-11.274 Y9.142 E11.58621
G1 X-11.608 Y8.744 E11.61214
G1 X-11.949 Y8.276 E11.64102
G1 X-12.222 Y7.765 E11.66993
G1 X-12.336 Y7.484 E11.68506
G1 X-12.513 Y6.999 E11.71081
G1 X-12.674 Y6.442 E11.73974
G1 X-12.757 Y5.869 E11.76863
G1 X-12.768 Y5.565 E11.7838
G1 X-12.784 Y-5.424 E12.33205
G1 X-12.745 Y-6.002 E12.36095
G1 X-12.643 Y-6.51 E12.3868
G1 X-12.51 Y-7.01 E12.41261
G1 X-12.323 Y-7.558 E12.4415
G1 X-12.062 Y-8.075 E12.47039
G1 X-11.888 Y-8.343 E12.48634
G1 X-11.591 Y-8.766 E12.51212
G1 X-11.227 Y-9.216 E12.541
G1 X-10.803 Y-9.612 E12.56994
G1 X-10.569 Y-9.789 E12.58458
G1 X-10.145 Y-10.087 E12.61043
G1 X-9.649 Y-10.387 E12.63935
G1 X-9.117 Y-10.615 E12.66823
G1 X-8.81 Y-10.71 E12.68426
G1 X-8.31 Y-10.843 E12.71008
G1 X-7.741 Y-10.953 E12.73899
G1 X-7.231 Y-10.984 E12.76448
G1 X-.391 Y-10.986 E13.10573
G1 X0.331 Y-10.913 E13.14193
G0 F3600 X0.331 Y-10.513
G1 F1800 X7.191 Y-10.584 E13.4842
G1 X7.741 Y-10.55 E13.51169
G1 X8.207 Y-10.456 E13.53541
G1 X8.707 Y-10.323 E13.56122
G1 X9.228 Y-10.143 E13.58872
G1 X9.914 Y-9.761 E13.62789
G1 X10.337 Y-9.464 E13.65368
G1 X10.763 Y-9.115 E13.68115
G1 X11.262 Y-8.539 E13.71918
G1 X11.56 Y-8.115 E13.74503
G1 X11.843 Y-7.642 E13.77253
G1 X12.123 Y-6.909 E13.81168
G1 X12.256 Y-6.41 E13.83744
G1 X12.359 Y-5.868 E13.86497
G1 X12.384 Y-5.425 E13.8871
G1 X12.368 Y5.565 E14.4354
G1 X12.327 Y6.114 E14.46286
G1 X12.138 Y6.862 E14.50135
G1 X11.961 Y7.347 E14.52711
G1 X11.735 Y7.849 E14.55458
G1 X11.302 Y8.487 E14.59304
G1 X10.968 Y8.885 E14.61897
G1 X10.584 Y9.28 E14.64645
G1 X9.965 Y9.728 E14.68457
G1 X9.519 Y9.987 E14.7103
G1 X9.024 Y10.229 E14.73779
G1 X8.263 Y10.445 E14.77726
G1 X7.752 Y10.534 E14.80314
G1 X7.081 Y10.59 E14.83673
G1 X-.163 Y10.553 E15.19814
G1 X-7.08 Y10.59 E15.54323
G1 X-7.752 Y10.534 E15.57688
G1 X-8.263 Y10.445 E15.60275
G1 X-8.798 Y10.311 E15.63027
G1 X-9.519 Y9.987 E15.66971
G1 X-9.965 Y9.728 E15.69544
G1 X-10.42 Y9.418 E15.7229
G1 X-10.968 Y8.885 E15.76104
G1 X-11.302 Y8.487 E15.78696
G1 X-11.624 Y8.04 E15.81445
G1 X-11.961 Y7.347 E15.85289
G1 X-12.138 Y6.862 E15.87865
G1 X-12.289 Y6.332 E15.90615
G1 X-12.368 Y5.565 E15.94461
G1 X-12.384 Y-5.424 E16.49286
G1 X-12.345 Y-5.974 E16.52037
G1 X-12.256 Y-6.407 E16.54242
G1 X-12.123 Y-6.907 E16.56823
G1 X-11.943 Y-7.428 E16.59573
G1 X-11.561 Y-8.114 E16.63491
G1 X-11.264 Y-8.537 E16.66069
G1 X-10.915 Y-8.963 E16.68817
G1 X-10.339 Y-9.462 E16.72619
G1 X-9.915 Y-9.76 E16.75204
G1 X-9.442 Y-10.043 E16.77954
G1 X-8.707 Y-10.323 E16.81878
G1 X-8.207 Y-10.456 E16.8446
G1 X-7.665 Y-10.559 E16.87212
G1 X-7.231 Y-10.584 E16.89381
G1 X-.391 Y-10.586 E17.23506
G1 X0.331 Y-10.513 E17.27126
G0 F3600 X0.29 Y-10.117
G1 F1800 X0.311 Y-10.113 E17.27233
G1 X7.195 Y-10.184 E17.61579
G1 X7.715 Y-10.149 E17.64179
G1 X8.104 Y-10.07 E17.6616
G1 X8.604 Y-9.937 E17.68741
G1 X9.096 Y-9.765 E17.71341
G1 X9.684 Y-9.434 E17.74708
G1 X10.107 Y-9.137 E17.77286
G1 X10.509 Y-8.805 E17.79887
G1 X10.935 Y-8.309 E17.83149
G1 X11.233 Y-7.885 E17.85735
G1 X11.499 Y-7.437 E17.88334
G1 X11.736 Y-6.806 E17.91697
G1 X11.869 Y-6.307 E17.94273
G1 X11.965 Y-5.794 E17.96877
G1 X11.984 Y-5.426 E17.98716
G1 X11.968 Y5.564 E18.53545
G1 X11.927 Y6.084 E18.56147
G1 X11.762 Y6.725 E18.5945
G1 X11.585 Y7.21 E18.62025
G1 X11.369 Y7.684 E18.64624
G1 X10.995 Y8.23 E18.67926
G1 X10.661 Y8.628 E18.70518
G1 X10.297 Y9 E18.73115
G1 X9.764 Y9.382 E18.76386
G1 X9.318 Y9.641 E18.78959
G1 X8.849 Y9.868 E18.81559
G1 X8.194 Y10.051 E18.84952
G1 X7.683 Y10.14 E18.87539
G1 X7.083 Y10.19 E18.90543
G1 X-.163 Y10.153 E19.26694
G1 X-7.082 Y10.19 E19.61214
G1 X-7.683 Y10.14 E19.64222
G1 X-8.194 Y10.051 E19.6681
G1 X-8.699 Y9.922 E19.69411
G1 X-9.318 Y9.641 E19.72802
G1 X-9.764 Y9.382 E19.75375
G1 X-10.194 Y9.087 E19.77977
G1 X-10.661 Y8.628 E19.81244
G1 X-10.995 Y8.23 E19.83836
G1 X-11.299 Y7.806 E19.86439
G1 X-11.585 Y7.21 E19.89737
G1 X-11.762 Y6.725 E19.92313
G1 X-11.903 Y6.223 E19.94914
G1 X-11.968 Y5.564 E19.98218
G1 X-11.984 Y-5.425 E20.53042
G1 X-11.945 Y-5.945 E20.55644
G1 X-11.87 Y-6.304 E20.57473
G1 X-11.737 Y-6.804 E20.60055
G1 X-11.565 Y-7.296 E20.62655
G1 X-11.234 Y-7.884 E20.66021
G1 X-10.937 Y-8.307 E20.686
G1 X-10.605 Y-8.709 E20.71201
G1 X-10.109 Y-9.135 E20.74463
G1 X-9.685 Y-9.433 E20.77049
G1 X-9.237 Y-9.699 E20.79648
G1 X-8.604 Y-9.937 E20.83022
G1 X-8.104 Y-10.07 E20.85603
G1 X-7.592 Y-10.165 E20.88201
G1 X-7.231 Y-10.184 E20.90005
G1 X-.391 Y-10.186 E21.24129
G1 X0.29 Y-10.117 E21.27544
G0 F3600 X0.21 Y-9.725
G1 F1800 X0.272 Y-9.712 E21.2786
G1 X7.199 Y-9.784 E21.62421
G1 X7.687 Y-9.749 E21.64862
G1 X8.001 Y-9.683 E21.66463
G1 X8.501 Y-9.55 E21.69044
G1 X8.962 Y-9.386 E21.71485
G1 X9.454 Y-9.106 E21.7431
G1 X9.877 Y-8.809 E21.76888
G1 X10.253 Y-8.496 E21.79329
G1 X10.607 Y-8.079 E21.82058
G1 X10.905 Y-7.655 E21.84643
G1 X11.153 Y-7.233 E21.87085
G1 X11.35 Y-6.703 E21.89906
G1 X11.483 Y-6.204 E21.92483
G1 X11.57 Y-5.722 E21.94926
G1 X11.584 Y-5.427 E21.964
G1 X11.568 Y5.563 E22.51229
G1 X11.527 Y6.051 E22.53672
G1 X11.386 Y6.587 E22.56438
G1 X11.209 Y7.072 E22.59013
G1 X11.004 Y7.517 E22.61458
G1 X10.689 Y7.972 E22.64219
G1 X10.355 Y8.37 E22.66811
G1 X10.011 Y8.719 E22.69256
G1 X9.564 Y9.036 E22.7199
G1 X9.118 Y9.295 E22.74563
G1 X8.676 Y9.506 E22.77006
G1 X8.126 Y9.657 E22.79852
G1 X7.615 Y9.746 E22.82439
G1 X7.085 Y9.79 E22.85093
G1 X-.163 Y9.753 E23.21254
G1 X-7.084 Y9.79 E23.55783
G1 X-7.615 Y9.746 E23.58441
G1 X-8.126 Y9.657 E23.61029
G1 X-8.6 Y9.533 E23.63473
G1 X-9.118 Y9.295 E23.66317
G1 X-9.564 Y9.036 E23.68891
G1 X-9.965 Y8.757 E23.71328
G1 X-10.355 Y8.37 E23.74069
G1 X-10.689 Y7.972 E23.76661
G1 X-10.972 Y7.573 E23.79102
G1 X-11.209 Y7.072 E23.81867
G1 X-11.386 Y6.587 E23.84442
G1 X-11.516 Y6.116 E23.8688
G1 X-11.568 Y5.563 E23.89651
G1 X-11.584 Y-5.426 E24.44476
G1 X-11.545 Y-5.914 E24.46918
G1 X-11.483 Y-6.201 E24.48383
G1 X-11.35 Y-6.701 E24.50964
G1 X-11.186 Y-7.162 E24.53405
G1 X-10.906 Y-7.654 E24.56229
G1 X-10.609 Y-8.077 E24.58808
G1 X-10.296 Y-8.453 E24.61249
G1 X-9.879 Y-8.807 E24.63978
G1 X-9.455 Y-9.105 E24.66563
G1 X-9.033 Y-9.353 E24.69005
G1 X-8.501 Y-9.55 E24.71836
G1 X-8.001 Y-9.683 E24.74417
G1 X-7.519 Y-9.77 E24.7686
G1 X-7.231 Y-9.784 E24.78299
G1 X-.391 Y-9.786 E25.12424
G1 X0.21 Y-9.725 E25.15438
G0 F3600 X0.13 Y-9.333
G1 F1800 X0.234 Y-9.312 E25.15967
G1 X7.203 Y-9.384 E25.50737
G1 X7.657 Y-9.349 E25.53009
G1 X7.898 Y-9.297 E25.54239
G1 X8.398 Y-9.164 E25.5682
G1 X8.827 Y-9.008 E25.59098
G1 X9.224 Y-8.779 E25.61384
G1 X9.647 Y-8.482 E25.63963
G1 X9.996 Y-8.188 E25.6624
G1 X10.28 Y-7.849 E25.68446
G1 X10.578 Y-7.425 E25.71031
G1 X10.806 Y-7.031 E25.73303
G1 X10.963 Y-6.6 E25.75591
G1 X11.096 Y-6.101 E25.78167
G1 X11.184 Y-5.427 E25.81559
G1 X11.168 Y5.563 E26.36388
G1 X11.127 Y6.017 E26.38662
G1 X11.01 Y6.45 E26.409
G1 X10.833 Y6.935 E26.43476
G1 X10.64 Y7.348 E26.4575
G1 X10.383 Y7.715 E26.47985
G1 X10.049 Y8.113 E26.50578
G1 X9.726 Y8.435 E26.52853
G1 X9.363 Y8.69 E26.55066
G1 X8.917 Y8.949 E26.57639
G1 X8.504 Y9.143 E26.59916
G1 X8.057 Y9.262 E26.62223
G1 X7.546 Y9.351 E26.64811
G1 X7.087 Y9.39 E26.67109
G1 X-.163 Y9.353 E27.0328
G1 X-7.086 Y9.39 E27.3782
G1 X-7.546 Y9.351 E27.40123
G1 X-8.057 Y9.262 E27.42711
G1 X-8.497 Y9.145 E27.44982
G1 X-8.917 Y8.949 E27.47295
G1 X-9.363 Y8.69 E27.49868
G1 X-9.735 Y8.428 E27.52138
G1 X-10.049 Y8.113 E27.54357
G1 X-10.383 Y7.715 E27.56949
G1 X-10.644 Y7.342 E27.5922
G1 X-10.833 Y6.935 E27.61459
G1 X-11.01 Y6.45 E27.64035
G1 X-11.129 Y6.01 E27.66309
G1 X-11.168 Y5.563 E27.68547
G1 X-11.184 Y-5.426 E28.23372
G1 X-11.097 Y-6.098 E28.26752
G1 X-10.964 Y-6.598 E28.29333
G1 X-10.808 Y-7.027 E28.31611
G1 X-10.579 Y-7.424 E28.33897
G1 X-10.282 Y-7.847 E28.36476
G1 X-9.988 Y-8.196 E28.38753
G1 X-9.649 Y-8.48 E28.40959
G1 X-9.225 Y-8.778 E28.43544
G1 X-8.831 Y-9.006 E28.45816
G1 X-8.398 Y-9.164 E28.48115
G1 X-7.898 Y-9.297 E28.50696
G1 X-7.231 Y-9.384 E28.54052
G1 X-.391 Y-9.386 E28.88177
G1 X0.13 Y-9.333 E28.9079
G0 F3600 X0.05 Y-8.942
G1 F1800 X0.2 Y-8.911 E28.91554
G1 X7.207 Y-8.984 E29.26514
G1 X7.796 Y-8.91 E29.29476
G1 X8.296 Y-8.777 E29.32057
G1 X8.688 Y-8.631 E29.34144
G1 X8.994 Y-8.452 E29.35912
G1 X9.417 Y-8.155 E29.38491
G1 X9.736 Y-7.882 E29.40586
G1 X9.953 Y-7.619 E29.42287
G1 X10.251 Y-7.195 E29.44872
G1 X10.458 Y-6.831 E29.46962
G1 X10.577 Y-6.497 E29.4873
G1 X10.71 Y-5.998 E29.51307
G1 X10.784 Y-5.428 E29.54174
G1 X10.768 Y5.562 E30.09004
G1 X10.727 Y5.979 E30.11094
G1 X10.635 Y6.313 E30.12823
G1 X10.458 Y6.798 E30.15398
G1 X10.277 Y7.176 E30.17489
G1 X10.076 Y7.458 E30.19217
G1 X9.742 Y7.856 E30.21809
G1 X9.443 Y8.15 E30.23901
G1 X9.162 Y8.344 E30.25605
G1 X8.716 Y8.603 E30.28178
G1 X8.335 Y8.778 E30.3027
G1 X7.988 Y8.868 E30.32058
G1 X7.477 Y8.957 E30.34646
G1 X7.089 Y8.99 E30.36589
G1 X-.163 Y8.953 E30.7277
G1 X-7.088 Y8.99 E31.07319
G1 X-7.477 Y8.957 E31.09267
G1 X-7.988 Y8.868 E31.11854
G1 X-8.393 Y8.757 E31.1395
G1 X-8.716 Y8.603 E31.15735
G1 X-9.162 Y8.344 E31.18308
G1 X-9.502 Y8.1 E31.20396
G1 X-9.742 Y7.856 E31.22103
G1 X-10.076 Y7.458 E31.24695
G1 X-10.314 Y7.113 E31.26786
G1 X-10.458 Y6.798 E31.28514
G1 X-10.635 Y6.313 E31.3109
G1 X-10.74 Y5.908 E31.33178
G1 X-10.768 Y5.562 E31.34909
G1 X-10.784 Y-5.427 E31.89734
G1 X-10.71 Y-5.996 E31.92596
G1 X-10.577 Y-6.496 E31.95178
G1 X-10.431 Y-6.888 E31.97265
G1 X-10.252 Y-7.194 E31.99033
G1 X-9.955 Y-7.617 E32.01612
G1 X-9.682 Y-7.936 E32.03707
G1 X-9.419 Y-8.153 E32.05408
G1 X-8.995 Y-8.451 E32.07993
G1 X-8.631 Y-8.658 E32.10082
G1 X-8.296 Y-8.777 E32.11856
G1 X-7.796 Y-8.91 E32.14437
G1 X-7.231 Y-8.984 E32.1728
G1 X-.391 Y-8.986 E32.51405
G1 X0.05 Y-8.942 E32.53616
G0 F3600 X-0.03 Y-8.55
G1 F1800 X0.161 Y-8.511 E32.54589
G1 X7.211 Y-8.584 E32.89763
G1 X7.693 Y-8.524 E32.92186
G1 X8.193 Y-8.391 E32.94768
G1 X8.547 Y-8.255 E32.9666
G1 X8.764 Y-8.124 E32.97924
G1 X9.187 Y-7.827 E33.00503
G1 X9.473 Y-7.578 E33.02395
G1 X9.626 Y-7.389 E33.03608
